icons/svg/16x16/windows/outline.svg

<svg xmlns="http://www.w3.org/2000/svg" width="16" height="16" viewBox="0 0 16 16">
  <path fill-rule="evenodd" d="M15,3 L15,9 C15,10.103 14.103,11 13,11 L12,11 L12,9 L13,9 L13,3 L7,3 L7,4 L5,4 L5,3 C5,1.897 5.897,1 7,1 L13,1 C14.103,1 15,1.897 15,3 L15,3 Z M3,13 L9,13 L9,7 L3,7 L3,13 Z M9,5 L3,5 C1.896,5 1,5.896 1,7 L1,13 C1,14.104 1.896,15 3,15 L9,15 C10.104,15 11,14.104 11,13 L11,7 C11,5.896 10.104,5 9,5 L9,5 Z"/>
</svg>

<svg width="16" height="16" fill="none" xmlns="http://www.w3.org/2000/svg">
  <path fill-rule="evenodd" clip-rule="evenodd" d="M15 3v6c0 1.103-.897 2-2 2h-1V9h1V3H7v1H5V3c0-1.103.897-2 2-2h6c1.103 0 2 .897 2 2zM3 13h6V7H3v6zm6-8H3a2 2 0 00-2 2v6a2 2 0 002 2h6a2 2 0 002-2V7a2 2 0 00-2-2z" fill="#000"/>
</svg>
